;Generated by Cura LulzBot Edition GCodeWriter Version: 3.2.23
;FLAVOR:Marlin
;TIME:16052
;Filament used: 4.38892m
;Layer height: 0.18
;Generated with Cura_SteamEngine 3.2.23
M82 ;absolute extrusion mode
;This G-Code has been generated specifically for the LulzBot Mini 2
M75 					; Start GLCD Print Timer
G26 					; clear potential 'probe fail' condition
G21 					; set units to Millimetres
M107 					; disable fans
G90 					; absolute positioning
M82 					; set extruder to absolute mode
G92 E0 					; set extruder position to 0
M140 S85 	; start bed heating up
G28 					; home all axes
G0 X0 Y187 Z156 F200 			; move away from endstops
M117 Mini 2 Wiping...			; progress indicator message on LCD
M109 R170 	; soften filament before retraction
G1 E-15 F75 				; retract filament
M109 R170 	; wait for extruder to reach wiping temp
G1 X45 Y176 F11520 			; move above wiper pad
G1 Z0 F1200 				; push nozzle into wiper
G1 X45 Y178 Z-.5 F4000		; wiping
G1 X55 Y176 Z-.5 F4000		; wiping
G1 X45 Y177 Z0 F4000		; wiping
G1 X55 Y176 F4000		; wiping
G1 X45 Y178 F4000		; wiping
G1 X55 Y176 F4000		; wiping
G1 X45 Y178 F4000		; wiping
G1 X55 Y176 F4000		; wiping
G1 X60 Y178 F4000		; wiping
G1 X80 Y176 F4000		; wiping
G1 X60 Y178 F4000		; wiping
G1 X80 Y176 F4000		; wiping
G1 X60 Y178 F4000		; wiping
G1 X90 Y176 F4000		; wiping
G1 X80 Y178 F4000		; wiping
G1 X100 Y176 F4000		; wiping
G1 X80 Y178 F4000		; wiping
G1 X100 Y176 F4000		; wiping
G1 X80 Y178 F4000		; wiping
G1 X100 Y176 F4000		; wiping
G1 X110 Y178 F4000		; wiping
G1 X100 Y176 F4000		; wiping
G1 X110 Y178 F4000		; wiping
G1 X100 Y176 F4000		; wiping
G1 X110 Y178 F4000		; wiping
G1 X115 Y176 Z-0.5 F1000	; wiping
G1 Z10					; raise extruder
G28 X0 Y0				; home X and Y
M109 R170	; wait for extruder to reach probe temp
M204 S300				; set probing acceleration
G29					; start auto-leveling sequence
M425 Z			     		; use measured Z backlash for compensation
M425 Z F0		     		; turn off measured Z backlash compensation. (if activated in the quality settings, this command will automatically be ignored)
M204 S2000				; restore standard acceleration
G1 X5 Y15 Z10 F5000			; move up off last probe point
G4 S1					; pause
M400					; wait for moves to finish
M117 Heating...				; progress indicator message on LCD
M109 R235	; wait for extruder to reach initial printing temp
M190 S85 ; wait for bed to reach printing temp
G1 Z2 E0 F75				; prime tiny bit of filment into the nozzle
M117 Mini 2 Printing...		; progress indicator message on LCD

M221 S100
;LAYER_COUNT:60
;LAYER:0
M425 F1.0
M107
G0 F1400 X29.503 Y18.568 Z0.425
;TYPE:WALL-INNER
G1 F480 X29.503 Y24.233 E0.1887
G1 X37.408 Y24.233 E0.45202
G1 X37.408 Y18.568 E0.64072
G1 X29.503 Y18.568 E0.90404
G0 F1400 X29.433 Y18.498
G0 X45.084 Y9.622
G0 X45.084 Y9.523
G1 F480 X45.334 Y9.523 E0.91237
G1 X45.334 Y9.773 E0.91776
G1 X45.33 Y33.28 E1.70079
G1 X21.587 Y33.279 E2.49167
G1 X21.587 Y9.77 E3.27477
G1 X21.587 Y9.52 E3.28309
G1 X21.837 Y9.52 E3.28848
G1 X45.084 Y9.523 E4.06285
G0 F1400 X45.584 Y9.023
;TYPE:WALL-OUTER
G1 F480 X45.834 Y9.023 E4.07118
G1 X45.834 Y9.273 E4.07656
G1 X45.83 Y33.78 E4.8929
G1 X21.087 Y33.779 E5.7171
G1 X21.087 Y9.27 E6.5335
G1 X21.087 Y9.02 E6.54183
G1 X21.337 Y9.02 E6.54722
G1 X45.584 Y9.023 E7.35489
G0 F1400 X45.834 Y9.023
G0 X45.264 Y9.593
G0 X29.475 Y18.54
G0 X29.403 Y19.068
G0 X30.003 Y19.068
G1 F480 X30.003 Y23.733 E7.51029
G1 X36.908 Y23.733 E7.7403
G1 X36.908 Y19.068 E7.89569
G1 X30.003 Y19.068 E8.1257
G0 F1400 X30.003 Y19.318
G0 X29.403 Y19.318
G0 X29.013 Y18.078
;TYPE:SKIN
G1 F480 X29.013 Y24.723 E8.34704
G1 X37.898 Y24.723 E8.64301
G1 X37.898 Y18.078 E8.86435
G1 X29.013 Y18.078 E9.16032
G0 F1400 X22.077 Y10.01
G1 F480 X44.844 Y10.013 E9.91869
G1 X44.84 Y32.79 E10.6774
G1 X22.077 Y32.789 E11.43565
G1 X22.077 Y10.01 E12.19442
G0 F1400 X44.618 Y10.677
G1 F480 X44.178 Y10.237 E12.21515
G0 F1400 X43.471 Y10.237
G1 F480 X44.618 Y11.384 E12.26918
G1 X44.706 Y11.472
G0 F1400 X44.618 Y12.091
G1 F480 X42.764 Y10.237 E12.35652
G1 X42.676 Y10.149
G0 F1400 X42.057 Y10.237
G1 F480 X44.618 Y12.798 E12.47717
G1 X44.706 Y12.886
G0 F1400 X44.618 Y13.505
G1 F480 X41.35 Y10.237 E12.63111
G1 X41.262 Y10.149
G0 F1400 X40.643 Y10.237
G1 F480 X44.617 Y14.212 E12.81834
G1 X44.705 Y14.3
G0 F1400 X44.617 Y14.919
G1 F480 X39.935 Y10.237 E13.0389
G1 X39.847 Y10.149
G0 F1400 X39.228 Y10.237
G1 F480 X44.617 Y15.626 E13.29277
G1 X44.705 Y15.714
G0 F1400 X44.617 Y16.333
G1 F480 X38.521 Y10.237 E13.57994
G1 X38.433 Y10.149
G0 F1400 X37.814 Y10.237
G1 F480 X44.617 Y17.04 E13.90041
G1 X44.705 Y17.128
G0 F1400 X44.617 Y17.746
G1 F480 X37.106 Y10.236 E14.25422
G1 X37.018 Y10.148
G0 F1400 X36.399 Y10.236
G1 F480 X44.617 Y18.454 E14.64135
G1 X44.705 Y18.542
G0 F1400 X44.617 Y19.161
G1 F480 X35.692 Y10.236 E15.06179
G1 X35.604 Y10.148
G0 F1400 X34.985 Y10.236
G1 F480 X44.617 Y19.868 E15.51553
G1 X44.705 Y19.956
G0 F1400 X44.617 Y20.575
G1 F480 X34.278 Y10.236 E16.00258
G1 X34.19 Y10.148
G0 F1400 X33.571 Y10.236
G1 F480 X44.617 Y21.282 E16.52294
G1 X44.705 Y21.37
G0 F1400 X44.616 Y21.988
G1 F480 X32.864 Y10.236 E17.07655
G1 X32.776 Y10.148
G0 F1400 X32.157 Y10.236
G1 F480 X44.616 Y22.696 E17.66349
G1 X44.704 Y22.784
G0 F1400 X44.616 Y23.403
G1 F480 X31.449 Y10.236 E18.28376
G1 X31.361 Y10.148
G0 F1400 X30.742 Y10.236
G1 F480 X44.616 Y24.11 E18.93734
G1 X44.704 Y24.198
G0 F1400 X44.616 Y24.817
G1 F480 X38.122 Y18.323 E19.24326
G1 X38.034 Y18.235
G0 F1400 X37.652 Y17.853
G1 F480 X30.035 Y10.236 E19.60208
G1 X29.947 Y10.148
G0 F1400 X29.327 Y10.236
G1 F480 X36.944 Y17.853 E19.9609
G1 X37.032 Y17.941
G0 F1400 X36.237 Y17.853
G1 F480 X28.62 Y10.236 E20.31972
G1 X28.532 Y10.148
G0 F1400 X27.913 Y10.236
G1 F480 X35.53 Y17.853 E20.67854
G1 X35.618 Y17.941
G0 F1400 X34.823 Y17.853
G1 F480 X27.206 Y10.236 E21.03737
G1 X27.118 Y10.148
G0 F1400 X26.499 Y10.236
G1 F480 X34.116 Y17.853 E21.39619
G1 X34.204 Y17.941
G0 F1400 X33.409 Y17.853
G1 F480 X25.792 Y10.236 E21.75501
G1 X25.704 Y10.148
G0 F1400 X25.085 Y10.236
G1 F480 X32.702 Y17.853 E22.11383
G1 X32.79 Y17.941
G0 F1400 X31.995 Y17.853
G1 F480 X24.378 Y10.236 E22.47265
G1 X24.29 Y10.148
G0 F1400 X23.671 Y10.236
G1 F480 X31.288 Y17.853 E22.83147
G1 X31.376 Y17.941
G0 F1400 X30.58 Y17.853
G1 F480 X22.963 Y10.236 E23.19029
G1 X22.875 Y10.148
G0 F1400 X22.301 Y10.28
G1 F480 X29.873 Y17.853 E23.54702
G1 X29.961 Y17.941
G0 F1400 X29.166 Y17.853
G1 F480 X22.301 Y10.987 E23.87044
G1 X22.213 Y10.899
G0 F1400 X22.301 Y11.694
G1 F480 X28.787 Y18.181 E24.176
G1 X28.875 Y18.269
G0 F1400 X28.787 Y18.888
G1 F480 X22.301 Y12.401 E24.48157
G1 X22.213 Y12.313
G0 F1400 X22.301 Y13.109
G1 F480 X28.787 Y19.595 E24.78711
G1 X28.875 Y19.683
G0 F1400 X28.787 Y20.302
G1 F480 X22.301 Y13.816 E25.09265
G1 X22.213 Y13.728
G0 F1400 X22.301 Y14.523
G1 F480 X28.787 Y21.009 E25.3982
G1 X28.875 Y21.097
G0 F1400 X28.787 Y21.716
G1 F480 X22.301 Y15.23 E25.70374
G1 X22.213 Y15.142
G0 F1400 X22.301 Y15.937
G1 F480 X28.787 Y22.423 E26.00928
G1 X28.875 Y22.511
G0 F1400 X28.787 Y23.13
G1 F480 X22.301 Y16.644 E26.31482
G1 X22.213 Y16.556
G0 F1400 X22.301 Y17.351
G1 F480 X28.787 Y23.837 E26.62037
G1 X28.875 Y23.925
G0 F1400 X28.787 Y24.545
G1 F480 X22.301 Y18.058 E26.92593
G1 X22.213 Y17.97
G0 F1400 X22.301 Y18.765
G1 F480 X36.099 Y32.564 E27.57595
G1 X36.187 Y32.652
G0 F1400 X35.392 Y32.564
G1 F480 X22.301 Y19.473 E28.19264
G1 X22.213 Y19.385
G0 F1400 X22.301 Y20.18
G1 F480 X34.685 Y32.564 E28.77603
G1 X34.773 Y32.652
G0 F1400 X33.978 Y32.564
G1 F480 X22.301 Y20.887 E29.32611
G1 X22.213 Y20.799
G0 F1400 X22.301 Y21.594
G1 F480 X33.27 Y32.563 E29.84283
G1 X33.358 Y32.651
G0 F1400 X32.563 Y32.563
G1 F480 X22.301 Y22.301 E30.32626
G1 X22.213 Y22.213
G0 F1400 X22.301 Y23.008
G1 F480 X31.856 Y32.563 E30.77637
G1 X31.944 Y32.651
G0 F1400 X31.149 Y32.563
G1 F480 X22.301 Y23.715 E31.19318
G1 X22.213 Y23.627
G0 F1400 X22.301 Y24.422
G1 F480 X30.442 Y32.563 E31.57669
G1 X30.53 Y32.651
G0 F1400 X29.735 Y32.563
G1 F480 X22.301 Y25.129 E31.92689
G1 X22.213 Y25.041
G0 F1400 X22.301 Y25.836
G1 F480 X29.028 Y32.563 E32.24378
G1 X29.116 Y32.651
G0 F1400 X28.321 Y32.563
G1 F480 X22.301 Y26.544 E32.52735
G1 X22.213 Y26.456
G0 F1400 X22.301 Y27.251
G1 F480 X27.613 Y32.563 E32.77759
G1 X27.701 Y32.651
G0 F1400 X26.906 Y32.563
G1 F480 X22.301 Y27.958 E32.99452
G1 X22.213 Y27.87
G0 F1400 X22.301 Y28.665
G1 F480 X26.199 Y32.563 E33.17815
G1 X26.287 Y32.651
G0 F1400 X25.492 Y32.563
G1 F480 X22.301 Y29.372 E33.32847
G1 X22.213 Y29.284
G0 F1400 X22.301 Y30.079
G1 F480 X24.785 Y32.563 E33.44549
G1 X24.873 Y32.651
G0 F1400 X24.078 Y32.563
G1 F480 X22.301 Y30.786 E33.5292
G1 X22.213 Y30.698
G0 F1400 X22.301 Y31.493
G1 F480 X23.371 Y32.563 E33.5796
G1 X23.459 Y32.651
G0 F1400 X22.664 Y32.563
G1 F480 X22.301 Y32.2 E33.5967
G0 F1400 X29.19 Y24.948
G1 F480 X36.807 Y32.564 E33.9555
G1 X36.895 Y32.652
G0 F1400 X37.514 Y32.564
G1 F480 X29.897 Y24.948 E34.3143
G1 X29.809 Y24.86
G0 F1400 X30.604 Y24.948
G1 F480 X38.221 Y32.564 E34.6731
G1 X38.309 Y32.652
G0 F1400 X38.928 Y32.564
G1 F480 X31.312 Y24.948 E35.03187
G1 X31.224 Y24.86
G0 F1400 X32.019 Y24.948
G1 F480 X39.635 Y32.564 E35.39064
G1 X39.723 Y32.652
G0 F1400 X40.342 Y32.564
G1 F480 X32.726 Y24.948 E35.74942
G1 X32.638 Y24.86
G0 F1400 X33.433 Y24.948
G1 F480 X41.049 Y32.564 E36.10819
G1 X41.137 Y32.652
G0 F1400 X41.756 Y32.564
G1 F480 X34.14 Y24.948 E36.46697
G1 X34.052 Y24.86
G0 F1400 X34.847 Y24.948
G1 F480 X42.463 Y32.564 E36.82574
G1 X42.551 Y32.652
G0 F1400 X43.17 Y32.564
G1 F480 X35.554 Y24.948 E37.18452
G1 X35.466 Y24.86
G0 F1400 X36.261 Y24.948
G1 F480 X43.878 Y32.564 E37.54331
G1 X43.966 Y32.652
G0 F1400 X44.585 Y32.564
G1 F480 X36.968 Y24.948 E37.90211
G1 X36.88 Y24.86
G0 F1400 X37.676 Y24.948
G1 F480 X44.614 Y31.886 E38.22895
G1 X44.702 Y31.974
G0 F1400 X44.614 Y31.179
G1 F480 X38.122 Y24.687 E38.53477
G1 X38.034 Y24.599
G0 F1400 X38.122 Y23.98
G1 F480 X44.614 Y30.472 E38.8406
G1 X44.702 Y30.56
G0 F1400 X44.614 Y29.765
G1 F480 X38.122 Y23.273 E39.14642
G1 X38.034 Y23.185
G0 F1400 X38.122 Y22.565
G1 F480 X44.614 Y29.058 E39.45227
G1 X44.702 Y29.146
G0 F1400 X44.615 Y28.352
G1 F480 X38.122 Y21.858 E39.75816
G1 X38.034 Y21.77
G0 F1400 X38.122 Y21.151
G1 F480 X44.615 Y27.645 E40.06406
G1 X44.703 Y27.733
G0 F1400 X44.615 Y26.937
G1 F480 X38.122 Y20.444 E40.36993
G1 X38.034 Y20.356
G0 F1400 X38.122 Y19.737
G1 F480 X44.615 Y26.23 E40.6758
G1 X44.703 Y26.318
G0 F1400 X44.615 Y25.523
G1 F480 X38.122 Y19.03 E40.98168
G1 X38.034 Y18.942
G1 F600 E39.98168
G0 F1400 X45.32 Y9.537
G0 X46.749 Y9.537
G0 X49.843 Y9.538
G0 X51.258 Y9.537
G0 X51.507 Y8.041
G0 X51.507 Y7.941
;TYPE:WALL-INNER
G1 F600 E40.98168
G1 F480 X75.662 Y7.942 E41.78629
G1 X75.664 Y32.609 E42.60795
G1 X75.664 Y32.859 E42.61628
G1 X75.414 Y32.859 E42.62167
G1 X51.258 Y32.858 E43.42632
G1 X51.257 Y8.191 E44.24798
G1 X51.257 Y7.941 E44.25631
G1 X51.507 Y7.941 E44.2617
G0 F1400 X51.007 Y7.441
;TYPE:WALL-OUTER
G1 F480 X76.162 Y7.442 E45.09962
G1 X76.164 Y33.109 E45.9546
G1 X76.164 Y33.359 E45.96292
G1 X75.914 Y33.359 E45.96831
G1 X50.758 Y33.358 E46.80627
G1 X50.757 Y7.691 E47.66124
G1 X50.757 Y7.441 E47.66957
G1 X51.007 Y7.441 E47.67496
G0 F1400 X51.257 Y7.441
G0 X51.327 Y8.011
G0 X51.747 Y8.431
;TYPE:SKIN
G1 F480 X75.172 Y8.432 E48.45526
G1 X75.174 Y32.369 E49.25261
G1 X51.748 Y32.368 E50.03293
G1 X51.747 Y8.431 E50.83028
G0 F1400 X74.946 Y9.186
G1 F480 X74.417 Y8.656 E50.85523
G0 F1400 X73.71 Y8.656
G1 F480 X74.946 Y9.893 E50.91348
G1 X75.034 Y9.981
G0 F1400 X74.946 Y10.6
G1 F480 X73.003 Y8.656 E51.00503
G1 X72.915 Y8.568
G0 F1400 X72.296 Y8.656
G1 F480 X74.946 Y11.307 E51.12989
G1 X75.034 Y11.395
G0 F1400 X74.946 Y12.014
G1 F480 X71.588 Y8.656 E51.28808
G1 X71.5 Y8.568
G0 F1400 X70.881 Y8.656
G1 F480 X74.946 Y12.721 E51.47957
G1 X75.034 Y12.809
G0 F1400 X74.946 Y13.428
G1 F480 X70.174 Y8.656 E51.70437
G1 X70.086 Y8.568
G0 F1400 X69.467 Y8.656
G1 F480 X74.946 Y14.135 E51.96248
G1 X75.034 Y14.223
G0 F1400 X74.946 Y14.842
G1 F480 X68.76 Y8.656 E52.25389
G1 X68.672 Y8.568
G0 F1400 X68.053 Y8.656
G1 F480 X74.946 Y15.549 E52.5786
G1 X75.034 Y15.637
G0 F1400 X74.946 Y16.257
G1 F480 X67.346 Y8.656 E52.93665
G1 X67.258 Y8.568
G0 F1400 X66.639 Y8.656
G1 F480 X74.947 Y16.964 E53.32802
G1 X75.035 Y17.052
G0 F1400 X74.947 Y17.672
G1 F480 X65.932 Y8.656 E53.75272
G1 X65.844 Y8.568
G0 F1400 X65.224 Y8.656
G1 F480 X74.947 Y18.379 E54.21075
G1 X75.035 Y18.467
G0 F1400 X74.947 Y19.086
G1 F480 X64.517 Y8.656 E54.70209
G1 X64.429 Y8.568
G0 F1400 X63.81 Y8.656
G1 F480 X74.947 Y19.793 E55.22673
G1 X75.035 Y19.881
G0 F1400 X74.947 Y20.5
G1 F480 X63.103 Y8.656 E55.78468
G1 X63.015 Y8.568
G0 F1400 X62.396 Y8.656
G1 F480 X74.947 Y21.207 E56.37593
G1 X75.035 Y21.295
G0 F1400 X74.947 Y21.914
G1 F480 X61.689 Y8.656 E57.00048
G1 X61.601 Y8.568
G0 F1400 X60.982 Y8.656
G1 F480 X74.947 Y22.621 E57.65835
G1 X75.035 Y22.709
G0 F1400 X74.947 Y23.328
G1 F480 X60.275 Y8.656 E58.34952
G1 X60.187 Y8.568
G0 F1400 X59.568 Y8.656
G1 F480 X74.947 Y24.035 E59.07399
G1 X75.035 Y24.123
G0 F1400 X74.948 Y24.743
G1 F480 X58.86 Y8.656 E59.83184
G1 X58.772 Y8.568
G0 F1400 X58.153 Y8.656
G1 F480 X74.948 Y25.45 E60.62299
G1 X75.036 Y25.538
G0 F1400 X74.948 Y26.158
G1 F480 X57.446 Y8.656 E61.44748
G1 X57.358 Y8.568
G0 F1400 X56.739 Y8.656
G1 F480 X74.948 Y26.865 E62.30527
G1 X75.036 Y26.953
G0 F1400 X74.948 Y27.572
G1 F480 X56.032 Y8.656 E63.19636
G1 X55.944 Y8.568
G0 F1400 X55.325 Y8.656
G1 F480 X74.948 Y28.279 E64.12076
G1 X75.036 Y28.367
G0 F1400 X74.948 Y28.986
G1 F480 X54.618 Y8.656 E65.07846
G1 X54.53 Y8.568
G0 F1400 X53.911 Y8.656
G1 F480 X74.948 Y29.693 E66.06947
G1 X75.036 Y29.781
G0 F1400 X74.948 Y30.4
G1 F480 X53.204 Y8.656 E67.09379
G1 X53.116 Y8.568
G0 F1400 X52.497 Y8.656
G1 F480 X74.948 Y31.107 E68.15141
G1 X75.036 Y31.195
G0 F1400 X74.948 Y31.814
G1 F480 X51.971 Y8.838 E69.23379
G1 X51.883 Y8.75
G0 F1400 X51.971 Y9.545
G1 F480 X74.57 Y32.143 E70.29836
G1 X74.658 Y32.231
G0 F1400 X73.862 Y32.143
G1 F480 X51.971 Y10.252 E71.3296
G1 X51.883 Y10.164
G0 F1400 X51.971 Y10.959
G1 F480 X73.155 Y32.143 E72.32753
G1 X73.243 Y32.231
G0 F1400 X72.448 Y32.143
G1 F480 X51.971 Y11.666 E73.29216
G1 X51.883 Y11.578
G0 F1400 X51.971 Y12.373
G1 F480 X71.741 Y32.143 E74.22349
G1 X71.829 Y32.231
G0 F1400 X71.034 Y32.143
G1 F480 X51.971 Y13.08 E75.12151
G1 X51.883 Y12.992
G0 F1400 X51.971 Y13.787
G1 F480 X70.327 Y32.143 E75.98622
G1 X70.415 Y32.231
G0 F1400 X69.62 Y32.143
G1 F480 X51.971 Y14.494 E76.81763
G1 X51.883 Y14.406
G0 F1400 X51.971 Y15.202
G1 F480 X68.913 Y32.143 E77.61571
G1 X69.001 Y32.231
G0 F1400 X68.206 Y32.143
G1 F480 X51.971 Y15.909 E78.38048
G1 X51.883 Y15.821
G0 F1400 X51.971 Y16.616
G1 F480 X67.498 Y32.143 E79.11193
G1 X67.586 Y32.231
G0 F1400 X66.791 Y32.143
G1 F480 X51.971 Y17.323 E79.81007
G1 X51.883 Y17.235
G0 F1400 X51.971 Y18.03
G1 F480 X66.084 Y32.143 E80.4749
G1 X66.172 Y32.231
G0 F1400 X65.377 Y32.143
G1 F480 X51.971 Y18.737 E81.10643
G1 X51.883 Y18.649
G0 F1400 X51.971 Y19.444
G1 F480 X64.67 Y32.143 E81.70465
G1 X64.758 Y32.231
G0 F1400 X63.963 Y32.143
G1 F480 X51.971 Y20.151 E82.26957
G1 X51.883 Y20.063
G0 F1400 X51.971 Y20.858
G1 F480 X63.255 Y32.142 E82.80114
G1 X63.343 Y32.23
G0 F1400 X62.548 Y32.142
G1 F480 X51.971 Y21.566 E83.29938
G1 X51.883 Y21.478
G0 F1400 X51.971 Y22.273
G1 F480 X61.841 Y32.142 E83.76431
G1 X61.929 Y32.23
G0 F1400 X61.134 Y32.142
G1 F480 X51.971 Y22.98 E84.19594
G1 X51.883 Y22.892
G0 F1400 X51.971 Y23.687
G1 F480 X60.427 Y32.142 E84.59426
G1 X60.515 Y32.23
G0 F1400 X59.72 Y32.142
G1 F480 X51.971 Y24.394 E84.95927
G1 X51.883 Y24.306
G0 F1400 X51.971 Y25.101
G1 F480 X59.013 Y32.142 E85.29098
G1 X59.101 Y32.23
G0 F1400 X58.305 Y32.142
G1 F480 X51.971 Y25.808 E85.58937
G1 X51.883 Y25.72
G0 F1400 X51.971 Y26.515
G1 F480 X57.598 Y32.142 E85.85444
G1 X57.686 Y32.23
G0 F1400 X56.891 Y32.142
G1 F480 X51.971 Y27.222 E86.08621
G1 X51.883 Y27.134
G0 F1400 X51.971 Y27.93
G1 F480 X56.184 Y32.142 E86.28466
G1 X56.272 Y32.23
G0 F1400 X55.477 Y32.142
G1 F480 X51.971 Y28.637 E86.44979
G1 X51.883 Y28.549
G0 F1400 X51.971 Y29.344
G1 F480 X54.77 Y32.142 E86.58162
